app/assets/images/heroicons/outline/hand-thumb-up.svg

<svg width="24" height="24" viewBox="0 0 24 24" fill="none" xmlns="http://www.w3.org/2000/svg">
<path d="M6.63257 10.25C7.43892 10.25 8.16648 9.80416 8.6641 9.16967C9.43726 8.18384 10.4117 7.3634 11.5255 6.77021C12.2477 6.38563 12.8743 5.81428 13.1781 5.05464C13.3908 4.5231 13.5 3.95587 13.5 3.38338V2.75C13.5 2.33579 13.8358 2 14.25 2C15.4926 2 16.5 3.00736 16.5 4.25C16.5 5.40163 16.2404 6.49263 15.7766 7.46771C15.511 8.02604 15.8836 8.75 16.5019 8.75M16.5019 8.75H19.6277C20.6544 8.75 21.5733 9.44399 21.682 10.4649C21.7269 10.8871 21.75 11.3158 21.75 11.75C21.75 14.5976 20.7581 17.2136 19.101 19.2712C18.7134 19.7525 18.1142 20 17.4962 20H13.4802C12.9966 20 12.5161 19.922 12.0572 19.7691L8.94278 18.7309C8.48393 18.578 8.00342 18.5 7.51975 18.5H5.90421M16.5019 8.75H14.25M5.90421 18.5C5.98702 18.7046 6.07713 18.9054 6.17423 19.1022C6.37137 19.5017 6.0962 20 5.65067 20H4.74289C3.85418 20 3.02991 19.482 2.77056 18.632C2.43208 17.5226 2.25 16.3451 2.25 15.125C2.25 13.5725 2.54481 12.0889 3.08149 10.7271C3.38655 9.95303 4.16733 9.5 4.99936 9.5H6.05212C6.52404 9.5 6.7973 10.0559 6.5523 10.4593C5.72588 11.8198 5.25 13.4168 5.25 15.125C5.25 16.3185 5.48232 17.4578 5.90421 18.5Z" stroke="#0F172A" stroke-width="1.5" stroke-linecap="round" stroke-linejoin="round"/>
</svg>

<svg xmlns="http://www.w3.org/2000/svg" fill="none" viewBox="0 0 24 24" stroke-width="1.5" stroke="currentColor" aria-hidden="true" data-slot="icon">
  <path stroke-linecap="round" stroke-linejoin="round" d="M6.633 10.25c.806 0 1.533-.446 2.031-1.08a9.041 9.041 0 0 1 2.861-2.4c.723-.384 1.35-.956 1.653-1.715a4.498 4.498 0 0 0 .322-1.672V2.75a.75.75 0 0 1 .75-.75 2.25 2.25 0 0 1 2.25 2.25c0 1.152-.26 2.243-.723 3.218-.266.558.107 1.282.725 1.282m0 0h3.126c1.026 0 1.945.694 2.054 1.715.045.422.068.85.068 1.285a11.95 11.95 0 0 1-2.649 7.521c-.388.482-.987.729-1.605.729H13.48c-.483 0-.964-.078-1.423-.23l-3.114-1.04a4.501 4.501 0 0 0-1.423-.23H5.904m10.598-9.75H14.25M5.904 18.5c.083.205.173.405.27.602.197.4-.078.898-.523.898h-.908c-.889 0-1.713-.518-1.972-1.368a12 12 0 0 1-.521-3.507c0-1.553.295-3.036.831-4.398C3.387 9.953 4.167 9.5 5 9.5h1.053c.472 0 .745.556.5.96a8.958 8.958 0 0 0-1.302 4.665c0 1.194.232 2.333.654 3.375Z"/>
</svg>
